X:1
T:Sixteen on the Dole
M:4/4
L:1/4
K:C
 C| C/2 C/2- C E G| A/2 G/2- G- G E/2E/2| D/2 D/2- D C B,| D4| c c/2 c/2- c c|\
 A/2 G/2- G- G G/2G/2| F E D/2 C/2- C|
